static/fa/svgs/solid/dollar-sign.svg

<svg xmlns="http://www.w3.org/2000/svg" viewBox="0 0 320 512"><!--! Font Awesome Free 6.1.1 by @fontawesome - https://fontawesome.com License - https://fontawesome.com/license/free (Icons: CC BY 4.0, Fonts: SIL OFL 1.1, Code: MIT License) Copyright 2022 Fonticons, Inc.--><path d="M160 0c17.7 0 32 14.33 32 32v35.68c1.6.21 3.1.44 4.7.67 10.6 1.58 42.2 6.67 55.2 9.96 16.2 4.34 27.5 21.79 23.1 38.89-4.3 17.1-21.7 27.5-38.9 23.2-9.3-3.3-37.6-7.1-48.8-8.7-32.1-4.8-59.6-2.4-78.5 4.8-18.28 7-25.87 16.9-27.88 28-1.94 10.7-.47 16.8 1.29 20.6 1.89 4 5.58 8.5 12.93 13.4 16.26 10.7 41.06 17.9 73.26 26.6l2.8.8c28.4 7.7 63.2 17.2 89 34.3 14.1 9.4 27.4 22.1 35.6 39.7 8.3 17.8 10.1 37.8 6.3 58.2-7 38.9-34 64.3-65.7 77.5-13.6 5.6-28.6 9.2-44.4 11V480c0 17.7-14.3 32-32 32s-32-14.3-32-32v-34.9c-.4 0-.9-1-1.3-.2h-.2c-24.3-3.8-64.43-14.3-91.5-26.3-16.15-7.2-23.42-26.1-16.24-42.3 7.18-16.1 26.09-23.4 41.34-16.2 21.8 9.3 56.2 18.4 76.1 21.5 32 4.8 58.3 2 76.1-5.2 16.9-6.9 24.6-16.9 26.8-28.9 1.9-10.7.5-16.8-1.3-20.6-1.9-4-5.6-8.5-12.9-13.4-16.3-10.7-41.1-17.9-73.3-26.6l-2.8-.8c-28.4-7.7-63.22-17.2-89.04-34.3-14.11-9.4-27.33-22.1-35.54-39.7-8.33-17.8-10.14-37.8-6.27-59.1 7.08-38.9 35.1-63.71 68.01-76.27 13.02-4.97 27.14-8.24 42.04-10V32c0-17.67 14.3-32 32-32z"/></svg>

<svg xmlns="http://www.w3.org/2000/svg" viewBox="0 0 320 512"><!--! Font Awesome Free 6.1.1 by @fontawesome - https://fontawesome.com License - https://fontawesome.com/license/free (Icons: CC BY 4.0, Fonts: SIL OFL 1.1, Code: MIT License) Copyright 2022 Fonticons, Inc. --><path d="M160 0C177.7 0 192 14.33 192 32V67.68C193.6 67.89 195.1 68.12 196.7 68.35C207.3 69.93 238.9 75.02 251.9 78.31C268.1 82.65 279.4 100.1 275 117.2C270.7 134.3 253.3 144.7 236.1 140.4C226.8 137.1 198.5 133.3 187.3 131.7C155.2 126.9 127.7 129.3 108.8 136.5C90.52 143.5 82.93 153.4 80.92 164.5C78.98 175.2 80.45 181.3 82.21 185.1C84.1 189.1 87.79 193.6 95.14 198.5C111.4 209.2 136.2 216.4 168.4 225.1L171.2 225.9C199.6 233.6 234.4 243.1 260.2 260.2C274.3 269.6 287.6 282.3 295.8 299.9C304.1 317.7 305.9 337.7 302.1 358.1C295.1 397 268.1 422.4 236.4 435.6C222.8 441.2 207.8 444.8 192 446.6V480C192 497.7 177.7 512 160 512C142.3 512 128 497.7 128 480V445.1C127.6 445.1 127.1 444.1 126.7 444.9L126.5 444.9C102.2 441.1 62.07 430.6 35 418.6C18.85 411.4 11.58 392.5 18.76 376.3C25.94 360.2 44.85 352.9 60.1 360.1C81.9 369.4 116.3 378.5 136.2 381.6C168.2 386.4 194.5 383.6 212.3 376.4C229.2 369.5 236.9 359.5 239.1 347.5C241 336.8 239.6 330.7 237.8 326.9C235.9 322.9 232.2 318.4 224.9 313.5C208.6 302.8 183.8 295.6 151.6 286.9L148.8 286.1C120.4 278.4 85.58 268.9 59.76 251.8C45.65 242.4 32.43 229.7 24.22 212.1C15.89 194.3 14.08 174.3 17.95 153C25.03 114.1 53.05 89.29 85.96 76.73C98.98 71.76 113.1 68.49 128 66.73V32C128 14.33 142.3 0 160 0V0z"/></svg>
